<?xml version="1.0" encoding="UTF-8"?>
<map version="1.10" tiledversion="1.11.2" orientation="orthogonal" renderorder="right-down" width="10" height="8" tilewidth="64" tileheight="64" infinite="0" nextlayerid="6" nextobjectid="1">
 <tileset firstgid="1" source="mapAssets.tsx"/>
 <layer id="3" name="Path" class="Enemy" width="10" height="8">
  <data encoding="csv">
0,0,0,0,0,0,0,0,0,0,
0,0,0,0,2,2,2,0,0,0,
0,0,0,0,2,0,2,0,0,0,
0,2,2,2,2,0,2,0,0,0,
0,0,0,0,0,0,2,0,0,0,
0,0,0,0,0,0,2,2,2,0,
0,0,0,0,0,0,0,0,0,0,
0,0,0,0,0,0,0,0,0,0
</data>
 </layer>
 <layer id="4" name="Ground" class="map" width="10" height="8">
  <properties>
   <property name="buildable" type="bool" value="true"/>
  </properties>
  <data encoding="csv">
0,1,1,1,1,1,1,1,1,0,
0,1,1,1,0,0,0,1,1,0,
0,1,1,1,0,1,0,1,1,0,
0,0,0,0,0,1,0,1,1,0,
0,1,1,1,1,1,0,1,1,0,
0,1,1,1,1,1,0,0,0,0,
0,1,1,1,1,1,1,1,1,0,
0,1,1,1,1,1,1,1,1,0
</data>
 </layer>
 <layer id="5" name="Arrow" width="10" height="8">
  <data encoding="csv">
0,0,0,0,0,0,0,0,0,1610612739,
0,0,0,0,0,0,0,0,0,1610612739,
0,0,0,0,0,0,0,0,0,1610612739,
12,0,0,0,0,0,0,0,0,1610612739,
0,0,0,0,0,0,0,0,0,1610612739,
0,0,0,0,0,0,0,0,0,1610612739,
0,0,0,0,0,0,0,0,0,1610612739,
0,0,0,0,0,0,0,0,0,1610612739
</data>
 </layer>
</map>
